src/images/single-assets/TNGBL.svg

<svg width="24" height="24" viewBox="0 0 24 24" fill="none" xmlns="http://www.w3.org/2000/svg">
    <circle cx="12" cy="12" r="12" fill="#04111D"/>
    <path fill-rule="evenodd" clip-rule="evenodd"
          d="M14.0411 12.2121C13.7948 13.3135 13.2767 14.3237 12.5301 15.1636C12.3368 15.381 12.3401 15.7186 12.5727 15.8933C12.6763 15.971 12.7821 16.0457 12.8897 16.1172C12.8997 16.1239 12.9144 16.1237 12.9218 16.1142C12.9229 16.1129 12.9238 16.1117 12.925 16.1105C13.893 15.1388 14.5799 13.9281 14.9081 12.609C15.0019 12.2305 15.0693 11.8355 15.1039 11.4406C15.1243 11.2135 15.1345 10.9843 15.1345 10.7633C15.1345 8.35685 13.9779 6.07319 12.042 4.65307L12.0318 4.64488C12.0122 4.62642 11.9817 4.62616 11.9618 4.64428L11.9522 4.65307C10.0143 6.07319 8.85964 8.35685 8.85964 10.7633C8.85964 11.0195 9.12571 11.181 9.3666 11.0938C9.44938 11.0638 9.53265 11.0352 9.61631 11.0079C9.72193 10.9735 9.7919 10.8744 9.7919 10.7633C9.7919 8.91958 10.5691 7.1434 11.9237 5.88903C11.9652 5.85085 12.029 5.85085 12.0705 5.88903C13.4251 7.1434 14.2002 8.91958 14.2002 10.7633C14.2002 10.8472 14.1982 10.9372 14.1941 11.0375C14.1778 11.4324 14.1268 11.8274 14.0411 12.2121ZM6.96071 12.7844C5.57354 14.0326 4.70044 15.7453 4.50052 17.6034C4.49685 17.6341 4.51282 17.6638 4.54046 17.6776L4.54744 17.6811C5.51438 18.1088 6.53844 18.3257 7.59514 18.3257C8.89984 18.3257 10.1549 17.9969 11.2714 17.3705C11.5417 17.2188 11.5516 16.8434 11.3183 16.6392C11.1646 16.5047 10.9406 16.4807 10.7616 16.5791C9.79374 17.1104 8.70698 17.3905 7.59514 17.3905C6.94643 17.3905 6.30588 17.2964 5.68778 17.1082L5.5919 17.0795L5.58299 17.0769C5.55243 17.068 5.53401 17.0369 5.5409 17.0058L5.56334 16.9076C5.99785 15.025 7.2259 13.431 8.93131 12.5368C9.28218 12.3526 9.65141 12.1991 10.0288 12.0825C10.6653 11.884 11.3283 11.7837 11.9994 11.7837C12.4492 11.7837 12.8948 11.8282 13.3304 11.9172C13.6161 11.9756 13.9073 11.8036 13.9411 11.514C13.9684 11.2799 13.8138 11.0643 13.5834 11.0146C13.0635 10.9026 12.5334 10.8465 11.9994 10.8465C11.3017 10.8465 10.6082 10.9427 9.93905 11.133C9.55962 11.2415 9.1863 11.3806 8.82931 11.5463C8.14796 11.8635 7.51966 12.2789 6.96071 12.7844ZM19.4543 17.6832C18.4873 18.1129 17.4612 18.3298 16.4045 18.3298C14.8358 18.3298 13.3344 17.853 12.0615 16.9527C11.7432 16.7255 11.4352 16.4698 11.1496 16.1915L11.1292 16.171C11.1169 16.1573 11.1036 16.1445 11.0907 16.132C11.0844 16.1258 11.0781 16.1198 11.0721 16.1137C10.2193 15.2583 9.58582 14.2177 9.22199 13.081C9.15033 12.8571 9.25817 12.6164 9.47417 12.5237C9.74324 12.4081 10.0405 12.5752 10.1325 12.8532C10.4832 13.9125 11.0947 14.8653 11.9268 15.6349C12.2165 15.9029 12.5327 16.1485 12.8672 16.3613C13.9239 17.0366 15.1479 17.3947 16.4045 17.3947C17.0757 17.3947 17.7387 17.2944 18.3751 17.0939C18.4293 17.0765 18.4612 17.0205 18.4486 16.965C18.0554 15.1987 16.9678 13.6857 15.4387 12.7526C15.2663 12.6474 15.1756 12.4479 15.2135 12.2496C15.2717 11.9459 15.6007 11.7623 15.866 11.9211C16.2829 12.1707 16.6753 12.4607 17.0389 12.7885C18.4261 14.0367 19.2992 15.7474 19.4991 17.6075L19.4997 17.6126C19.503 17.6422 19.486 17.6703 19.4583 17.6812L19.4543 17.6832Z"
          fill="white"/>
</svg>

<svg xmlns="http://www.w3.org/2000/svg" width="24" height="24" fill="none"><circle cx="12" cy="12" r="12" fill="#04111D"/><path fill="#fff" fill-rule="evenodd" d="M14.041 12.212a6.6 6.6 0 0 1-1.51 2.952c-.194.217-.19.555.042.73q.156.116.317.223c.01.007.024.007.032-.003l.003-.004a7.55 7.55 0 0 0 2.21-5.347 7.6 7.6 0 0 0-3.093-6.11l-.01-.008a.05.05 0 0 0-.07 0l-.01.008a7.6 7.6 0 0 0-3.092 6.11c0 .257.266.418.507.33q.124-.045.25-.085a.26.26 0 0 0 .175-.245c0-1.843.777-3.62 2.132-4.874a.11.11 0 0 1 .146 0 6.66 6.66 0 0 1 1.971 6.323m-7.08.572a7.56 7.56 0 0 0-2.46 4.82c-.004.03.012.06.04.074l.006.003a7.5 7.5 0 0 0 3.048.645 7.5 7.5 0 0 0 3.676-.956c.27-.151.28-.527.047-.73a.49.49 0 0 0-.556-.06 6.57 6.57 0 0 1-5.074.528l-.096-.029-.009-.002a.06.06 0 0 1-.042-.071l.022-.098a6.6 6.6 0 0 1 4.466-4.826 6.646 6.646 0 0 1 3.302-.165c.285.059.576-.113.61-.403a.456.456 0 0 0-.358-.5 7.5 7.5 0 0 0-3.644.119 7.5 7.5 0 0 0-2.978 1.651m12.493 4.9a7.5 7.5 0 0 1-3.05.646 7.48 7.48 0 0 1-5.254-2.138l-.02-.021-.04-.039-.018-.018a7.57 7.57 0 0 1-1.85-3.033.454.454 0 0 1 .252-.557c.27-.116.566.051.659.33a6.6 6.6 0 0 0 1.794 2.78 6.56 6.56 0 0 0 4.478 1.76c.67 0 1.334-.1 1.97-.3a.11.11 0 0 0 .074-.129 6.6 6.6 0 0 0-3.01-4.212.48.48 0 0 1-.226-.503c.059-.304.388-.488.653-.329q.627.375 1.173.868a7.56 7.56 0 0 1 2.46 4.819v.005a.07.07 0 0 1-.04.068z" clip-rule="evenodd"/></svg>
